X:99
T:Hunt The Hare THO4.99
M:6/8
L:1/8
Z:vmp. Peter Dunk 2010/11.from a transcription by Fynn Titford-Mock 2007
B:Thompson's Compleat Collection of 200 Favourite Country Dances Volume IV.
Q:3/8=110
K:D
d2 D FGA|Bed cBA|d2 D FGA|Bed d3::fed fed|fed fed|
ecd edc|(e/f/g)f {f}e3|d2 D FGA|Bge cAc|d2 D FGA|Bdc d3:|

